src/img/header/facebook.svg

<svg width="19" height="33" viewBox="0 0 19 33" fill="none" xmlns="http://www.w3.org/2000/svg">
<path d="M15.6829 5.8986H16.7162C17.8208 5.8986 18.7162 5.00317 18.7162 3.8986V2.00334C18.7162 0.898772 17.8208 0.00334396 16.7162 0.00334396H13.2038C12.7439 -0.0170243 7.13835 -0.131086 5.68546 5.76689C5.66441 5.82867 5.2001 7.23137 5.2001 10.5079L2.15314 10.5178C1.0511 10.5214 0.159607 11.4157 0.159607 12.5178V14.7012C0.159607 15.8082 1.05881 16.7046 2.16579 16.7012L5.20647 16.6917V31.0006C5.20647 32.1052 6.1019 33.0006 7.20647 33.0006H10.9155C12.0201 33.0006 12.9155 32.1052 12.9155 31.0006V16.706H16.0179C17.1224 16.706 18.0179 15.8106 18.0179 14.706V12.5066C18.0179 11.402 17.1224 10.5066 16.0179 10.5066H12.9155V8.55598C12.9155 7.34339 13.3958 5.8986 15.6829 5.8986ZM15.7423 11.8638C16.2945 11.8638 16.7423 12.3115 16.7423 12.8638V14.3474C16.7423 14.8997 16.2945 15.3474 15.7423 15.3474H11.6399V30.8998C11.6399 31.452 11.1922 31.8998 10.6399 31.8998H8.90341H7.48206C6.92978 31.8998 6.48206 31.452 6.48206 30.8998V15.3298L2.43829 15.3423C1.8848 15.344 1.4352 14.8958 1.4352 14.3423V12.875C1.4352 12.3239 1.88103 11.8767 2.43211 11.875L6.49546 11.8624L6.48206 11.1719C6.41573 7.70119 6.88068 6.24147 6.90173 6.17154C8.15564 1.09169 12.9436 1.34697 13.1489 1.36055L16.441 1.36159C16.9931 1.36177 17.4406 1.80943 17.4406 2.36159V3.5414C17.4406 4.09368 16.9929 4.5414 16.4406 4.5414H15.6829C12.7025 4.5414 11.6405 6.61489 11.6405 8.5553V11.8638H15.7423Z" fill="black"/>
</svg>

<svg width="19" height="33" fill="none" xmlns="http://www.w3.org/2000/svg"><path d="M15.683 5.899h1.033a2 2 0 0 0 2-2V2.003a2 2 0 0 0-2-2h-3.512c-.46-.02-6.066-.134-7.519 5.764-.02.062-.485 1.464-.485 4.74l-3.047.01a2 2 0 0 0-1.993 2v2.184a2 2 0 0 0 2.006 2l3.04-.01v14.31a2 2 0 0 0 2 2h3.71a2 2 0 0 0 2-2V16.706h3.102a2 2 0 0 0 2-2v-2.2a2 2 0 0 0-2-2h-3.103v-1.95c0-1.213.48-2.657 2.768-2.657Zm.06 5.965a1 1 0 0 1 1 1v1.483a1 1 0 0 1-1 1H11.64V30.9a1 1 0 0 1-1 1H7.483a1 1 0 0 1-1-1V15.33l-4.045.012a1 1 0 0 1-1.003-1v-1.467a1 1 0 0 1 .997-1l4.063-.013-.013-.69c-.066-3.47.399-4.93.42-5 1.254-5.08 6.042-4.825 6.247-4.811h3.292a1 1 0 0 1 1 1v1.18a1 1 0 0 1-1 1h-.758c-2.98 0-4.043 2.074-4.043 4.014v3.309h4.102Z" fill="#000"/></svg>
